X: 17809
T: Hop Break
R: jig
M: 6/8
K: Bminor
F|:B2c dcB|efg f2d|B2f fed|cAc edc|
B2c dcB|efg f2f|fed cAc|1 B3 B2F:|2 B3 B2f||
|:fdB fdB|g2g g2f|ecA ecA|f2f f2e|
dBG dBG|efg f2e|dcB AFA|1 B3 B2f:|2 B3 B2F||

